frontend/src/assets/scalable/link.svg

<svg xmlns="http://www.w3.org/2000/svg" xmlns:xlink="http://www.w3.org/1999/xlink" viewBox="0 0 24 24"><defs><linearGradient id="a" x1="12.76" y1="12.17" x2="20.69" y2="12.17" gradientTransform="translate(0.07 -0.17)" gradientUnits="userSpaceOnUse"><stop offset="0" stop-color="#b6b7b7"/><stop offset="1" stop-color="#e0e0df"/></linearGradient></defs><path d="M6,10H8.41c.55,0,1,.24,1,.56l1.75,0A2.26,2.26,0,0,0,8.88,8.32l-3.39,0a2.26,2.26,0,0,0-2.24,2.28l0,2.82a2.25,2.25,0,0,0,2.27,2.24l3.39,0a2.27,2.27,0,0,0,2.25-2.28H9.41c0,.32-.47.58-1.05.59H6.1A1.12,1.12,0,0,1,5,12.86V11.17A1.12,1.12,0,0,1,6.07,10" style="fill:#dc3545"/><path d="M18,14H15.59c-.55,0-1-.24-1-.56l-1.75,0a2.26,2.26,0,0,0,2.28,2.24l3.39,0a2.26,2.26,0,0,0,2.24-2.28l0-2.82a2.25,2.25,0,0,0-2.27-2.24l-3.39,0a2.27,2.27,0,0,0-2.25,2.28h1.77c0-.32.47-.58,1.05-.59H17.9A1.12,1.12,0,0,1,19,11.14v1.69A1.12,1.12,0,0,1,17.93,14" style="fill:url(#a)"/><rect x="8.33" y="11.15" width="7.34" height="1.69" rx="0.85" style="fill:#dc3545"/></svg>

<?xml version="1.0" encoding="UTF-8" standalone="no"?>
<svg
   viewBox="0 0 24 24"
   version="1.1"
   id="svg48"
   sodipodi:docname="link.svg"
   inkscape:version="1.2.2 (b0a84865, 2022-12-01)"
   xmlns:inkscape="http://www.inkscape.org/namespaces/inkscape"
   xmlns:sodipodi="http://sodipodi.sourceforge.net/DTD/sodipodi-0.dtd"
   xmlns="http://www.w3.org/2000/svg"
   xmlns:svg="http://www.w3.org/2000/svg">
  <sodipodi:namedview
     id="namedview50"
     pagecolor="#505050"
     bordercolor="#eeeeee"
     borderopacity="1"
     inkscape:showpageshadow="0"
     inkscape:pageopacity="0"
     inkscape:pagecheckerboard="0"
     inkscape:deskcolor="#505050"
     showgrid="false"
     inkscape:zoom="9.8333333"
     inkscape:cx="2.5423729"
     inkscape:cy="12"
     inkscape:window-width="1440"
     inkscape:window-height="900"
     inkscape:window-x="0"
     inkscape:window-y="0"
     inkscape:window-maximized="0"
     inkscape:current-layer="svg48" />
  <defs
     id="defs40">
    <linearGradient
       id="a"
       x1="12.76"
       y1="12.17"
       x2="20.69"
       y2="12.17"
       gradientTransform="translate(0.07,-0.17)"
       gradientUnits="userSpaceOnUse">
      <stop
         offset="0"
         stop-color="#b6b7b7"
         id="stop35" />
      <stop
         offset="1"
         stop-color="#e0e0df"
         id="stop37" />
    </linearGradient>
  </defs>
  <g
     id="g282"
     transform="matrix(1.3714146,0,0,1.3714146,-4.4569752,-4.4569752)">
    <path
       d="m 6,10 h 2.41 c 0.55,0 1,0.24 1,0.56 h 1.75 A 2.26,2.26 0 0 0 8.88,8.32 H 5.49 A 2.26,2.26 0 0 0 3.25,10.6 v 2.82 a 2.25,2.25 0 0 0 2.27,2.24 h 3.39 a 2.27,2.27 0 0 0 2.25,-2.28 H 9.41 c 0,0.32 -0.47,0.58 -1.05,0.59 H 6.1 A 1.12,1.12 0 0 1 5,12.86 V 11.17 A 1.12,1.12 0 0 1 6.07,10"
       style="fill:#dc3545"
       id="path42" />
    <path
       d="m 18,14 h -2.41 c -0.55,0 -1,-0.24 -1,-0.56 h -1.75 a 2.26,2.26 0 0 0 2.28,2.24 h 3.39 A 2.26,2.26 0 0 0 20.75,13.4 V 10.58 A 2.25,2.25 0 0 0 18.48,8.34 h -3.39 a 2.27,2.27 0 0 0 -2.25,2.28 h 1.77 c 0,-0.32 0.47,-0.58 1.05,-0.59 h 2.24 a 1.12,1.12 0 0 1 1.1,1.11 v 1.69 A 1.12,1.12 0 0 1 17.93,14"
       style="fill:url(#a)"
       id="path44" />
    <rect
       x="8.3299999"
       y="11.15"
       width="7.3400002"
       height="1.6900001"
       rx="0.85000002"
       style="fill:#dc3545"
       id="rect46" />
  </g>
</svg>
